!!!OTL: 546. Warte noch ein Jahr!
!!!ODT: 1860
!!!ARE: Europa, Mitteleuropa, Deutschland, Pommern
!!!SCT: E0546
!!!TXL: @@DE
!!!YEM: Copyright 1995, estate of Helmut Schaffrath.
**kern	**text
*ICvox	*
*M2/4	*
*k[f#]	*
*G:	*
!LO:TX:a:t=Mäßig.	!
!LO:TX:a:t=Aus Pommern 1860.	!
{8d	1._Dort
=1	=1
8.g	ob'n
16d	auf
(8b/	je-
16a)	.
16g	-nem
=2	=2
16gL	Ber-
16f#J	.
8f#	-ge,
8r}	.
{8d	da
=3	=3
8a	ſteht
8d	ein
(8cc	ho-
16b)	.
16a	-hes
=4	=4
4b	Haus,
8r}	.
{8b	da
=5	=5
8dd	ſchaut
8b	ja
8.dd	al-
16d	-le
=6	=6
8dL	Mor-
8ccJ	.
8.cc}	-gen,
{16a	da
=7	=7
8cc	ſchaut
8a	ja
8cc	al-
8d	-le
=8	=8
8dL	Mor-
8bJ	.
8b}	-gen
{16ccL	mein
16aJ	.
=9	=9
8g	fei-
8g	-nes
16aL	Lieb-
16gJ	.
8a	-chen
=10	=10
4.b}	'raus,
{16cc/L	mein
16aJ	.
=11	=11
8g	fei-
16gL	-nes
16bJ	.
8.dd	Lieb-
16d	-chen
=12	=12
4g	'raus.
8r}	.
==	==
!!!AGN: Liebes - Lied
!!!ONB: ESAC (Essen Associative Code) Database: ERK1
!!!AMT: simple duple
!!!AIN: vox
!!!EED: Helmut Schaffrath
!!!EEV: 1.0
!!!GTL: Liebeslieder [Neuere (aus dem 18. bis 19. Jahrh.) - Liebeslust]
!!!URL-scan: https://rosdok.uni-rostock.de/mcrviewer/recordIdentifier/rosdok_ppn745177662/iview2/phys_0375.iview2?x=-128.77276441889308&y=224.92186451540329&scale=0.5870222003877485&rotation=0&layout=singlePageLayout
!!!ENC: Anna Maria Matuszewska
!!!EEV: 2024/10/12
*-	*-
